rospo-icon-theme-classic-common/16x16/apps/cin.svg

<svg height="16" width="16" xmlns="http://www.w3.org/2000/svg"><rect fill="#fecd38" height="15" rx=".75" transform="scale(1 -1)" width="15" y="-15"/><path d="m1 1v1h1v-1zm3 0v1h1v-1zm3 0v1h1v-1zm3 0v1h1v-1zm3 0v1h1v-1zm-11 2v9h5v-9zm6 0v9h5v-9zm-7 10v1h1v-1zm3 0v1h1v-1zm3 0v1h1v-1zm3 0v1h1v-1zm3 0v1h1v-1z" fill="#336894"/></svg>

<svg xmlns="http://www.w3.org/2000/svg" width="16" height="16" version="1">
 <rect style="fill:#fecd38" width="15" height="15" x="0" y="-15" rx=".75" ry=".75" transform="scale(1,-1)"/>
 <path style="fill:#336894" d="M 1 1 L 1 2 L 2 2 L 2 1 L 1 1 z M 4 1 L 4 2 L 5 2 L 5 1 L 4 1 z M 7 1 L 7 2 L 8 2 L 8 1 L 7 1 z M 10 1 L 10 2 L 11 2 L 11 1 L 10 1 z M 13 1 L 13 2 L 14 2 L 14 1 L 13 1 z M 2 3 L 2 12 L 7 12 L 7 3 L 2 3 z M 8 3 L 8 12 L 13 12 L 13 3 L 8 3 z M 1 13 L 1 14 L 2 14 L 2 13 L 1 13 z M 4 13 L 4 14 L 5 14 L 5 13 L 4 13 z M 7 13 L 7 14 L 8 14 L 8 13 L 7 13 z M 10 13 L 10 14 L 11 14 L 11 13 L 10 13 z M 13 13 L 13 14 L 14 14 L 14 13 L 13 13 z"/>
</svg>
